images/archaeological_site.svg

<?xml version="1.0" encoding="UTF-8" standalone="no"?>
<svg xmlns:dc="http://purl.org/dc/elements/1.1/" xmlns:cc="http://creativecommons.org/ns#" xmlns:rdf="http://www.w3.org/1999/02/22-rdf-syntax-ns#" xmlns:svg="http://www.w3.org/2000/svg" xmlns="http://www.w3.org/2000/svg" xmlns:sodipodi="http://sodipodi.sourceforge.net/DTD/sodipodi-0.dtd" xmlns:inkscape="http://www.inkscape.org/namespaces/inkscape" version="1.1" width="14" height="14" viewBox="0 0 14 14" id="svg2" sodipodi:docname="archaeological_site.svg" inkscape:version="0.92.4 (5da689c313, 2019-01-14)">
  <sodipodi:namedview pagecolor="#ffffff" bordercolor="#666666" borderopacity="1" objecttolerance="10" gridtolerance="10" guidetolerance="10" inkscape:pageopacity="0" inkscape:pageshadow="2" inkscape:window-width="1881" inkscape:window-height="1051" id="namedview897" showgrid="false" inkscape:pagecheckerboard="true" inkscape:zoom="16.857143" inkscape:cx="-1.6610169" inkscape:cy="7" inkscape:window-x="0" inkscape:window-y="0" inkscape:window-maximized="1" inkscape:current-layer="svg2" />
  <metadata id="metadata8">
    <rdf:RDF>
      <cc:Work rdf:about="">
        <dc:format>image/svg+xml</dc:format>
        <dc:type rdf:resource="http://purl.org/dc/dcmitype/StillImage" />
        <dc:title></dc:title>
      </cc:Work>
    </rdf:RDF>
  </metadata>
  <defs id="defs6" />
  <path style="opacity:0.5;fill:none;fill-opacity:1;stroke:#ffffff;stroke-width:3;stroke-linecap:round;stroke-linejoin:round;stroke-miterlimit:4;stroke-dasharray:none;stroke-opacity:1" id="outline" d="M 3,0 V 1 H 4 C 4.5988688,1 4.8411383,2.0430706 4.9375,2.90625 C 3.9652283,2.1499026 3.0249855,1.8795933 2.21875,2.03125 C 1.1884439,2.2250555 0.5,3.1743045 0.5,4.25 C 0.5,5.0919164 0.81211643,5.8288561 1.34375,6.59375 C 1.808371,7.2622287 2.4635938,8.0338076 3.28125,8.96875 C 3.6476993,10.327756 4.3223039,11.572304 5,12.25 V 13 L 4,13.5 V 14 H 10 V 13.5 L 9,13 V 12.25 C 9.6776961,11.572304 10.352301,10.327756 10.71875,8.96875 C 11.536406,8.0338076 12.191629,7.2622287 12.65625,6.59375 C 13.187884,5.8288561 13.5,5.0919164 13.5,4.25 C 13.5,3.1743045 12.811556,2.2250555 11.78125,2.03125 C 10.975015,1.8795933 10.034772,2.1499026 9.0625,2.90625 C 9.1588617,2.0430706 9.4011312,1 10,1 H 11 V 0 Z M 2.375,3.03125 C 2.8848367,2.935347 3.7354039,3.1324962 4.71875,4.03125 C 3.603741,4.1696287 3,5.1495633 3,7 C 3,7.0311958 2.9995172,7.0624382 3,7.09375 C 2.6594765,6.6981019 2.3761871,6.3476871 2.15625,6.03125 C 1.6878836,5.3573824 1.5,4.8627724 1.5,4.25 C 1.5,3.5496757 1.8109254,3.1373551 2.375,3.03125 Z M 11.125,3.03125 C 11.313111,3.004136 11.483981,3.004724 11.625,3.03125 C 12.189075,3.1373551 12.5,3.5496757 12.5,4.25 C 12.5,4.8627724 12.312116,5.3573824 11.84375,6.03125 C 11.623813,6.3476871 11.340524,6.6981019 11,7.09375 C 11.000483,7.0624382 11,7.0311958 11,7 C 11,5.1495633 10.396259,4.1696287 9.28125,4.03125 C 9.9926067,3.3810877 10.633017,3.1021642 11.125,3.03125 Z" inkscape:connector-curvature="0" />
  <path d="M 3,0 3,1 4,1 C 4.5988688,1 4.8411383,2.0430706 4.9375,2.90625 3.9652283,2.1499026 3.0249855,1.8795933 2.21875,2.03125 1.1884439,2.2250555 0.5,3.1743045 0.5,4.25 c 0,0.8419164 0.31211643,1.5788561 0.84375,2.34375 0.464621,0.6684787 1.1198438,1.4400576 1.9375,2.375 C 3.6476993,10.327756 4.3223039,11.572304 5,12.25 L 5,13 4,13.5 4,14 10,14 10,13.5 9,13 9,12.25 c 0.6776961,-0.677696 1.352301,-1.922244 1.71875,-3.28125 0.817656,-0.9349424 1.472879,-1.7065213 1.9375,-2.375 C 13.187884,5.8288561 13.5,5.0919164 13.5,4.25 13.5,3.1743045 12.811556,2.2250555 11.78125,2.03125 10.975015,1.8795933 10.034772,2.1499026 9.0625,2.90625 9.1588617,2.0430706 9.4011312,1 10,1 L 11,1 11,0 3,0 z M 2.375,3.03125 c 0.5098367,-0.095903 1.3604039,0.1012462 2.34375,1 C 3.603741,4.1696287 3,5.1495633 3,7 3,7.0311958 2.9995172,7.0624382 3,7.09375 2.6594765,6.6981019 2.3761871,6.3476871 2.15625,6.03125 1.6878836,5.3573824 1.5,4.8627724 1.5,4.25 1.5,3.5496757 1.8109254,3.1373551 2.375,3.03125 z m 8.75,0 c 0.188111,-0.027114 0.358981,-0.026526 0.5,0 C 12.189075,3.1373551 12.5,3.5496757 12.5,4.25 12.5,4.8627724 12.312116,5.3573824 11.84375,6.03125 11.623813,6.3476871 11.340524,6.6981019 11,7.09375 11.000483,7.0624382 11,7.0311958 11,7 11,5.1495633 10.396259,4.1696287 9.28125,4.03125 c 0.7113567,-0.6501623 1.351767,-0.9290858 1.84375,-1 z" id="archaeological-site" style="fill:#000000;fill-opacity:1;stroke:none" />
</svg>

<svg xmlns="http://www.w3.org/2000/svg" width="14" height="14">
    <path d="M3 0v1h1c.599 0 .841 1.043.938 1.906-.973-.756-1.913-1.026-2.72-.875C1.189 2.225.5 3.174.5 4.25c0 .842.312 1.579.844 2.344.464.668 1.12 1.44 1.937 2.375.367 1.359 1.041 2.603 1.719 3.281V13l-1 .5v.5h6v-.5L9 13v-.75c.678-.678 1.352-1.922 1.719-3.281.817-.935 1.473-1.707 1.937-2.375.532-.765.844-1.502.844-2.344 0-1.076-.688-2.025-1.719-2.219-.806-.151-1.746.119-2.719.875C9.16 2.043 9.402 1 10 1h1V0zm-.625 3.031c.51-.096 1.36.101 2.344 1C3.604 4.17 3 5.15 3 7v.094c-.34-.396-.624-.746-.844-1.063C1.688 5.357 1.5 4.863 1.5 4.25c0-.7.31-1.113.875-1.219zm8.75 0c.188-.027.359-.026.5 0 .564.106.875.519.875 1.219 0 .613-.188 1.107-.656 1.781-.22.317-.503.667-.844 1.063V7c0-1.85-.604-2.83-1.719-2.969.712-.65 1.352-.929 1.844-1z" opacity=".5" fill="none" stroke="#fff" stroke-width="3" stroke-linecap="round" stroke-linejoin="round"/>
    <path d="M3 0v1h1c.599 0 .841 1.043.938 1.906-.973-.756-1.913-1.026-2.72-.875C1.189 2.225.5 3.174.5 4.25c0 .842.312 1.579.844 2.344.464.668 1.12 1.44 1.937 2.375.367 1.359 1.041 2.603 1.719 3.281V13l-1 .5v.5h6v-.5L9 13v-.75c.678-.678 1.352-1.922 1.719-3.281.817-.935 1.473-1.707 1.937-2.375.532-.765.844-1.502.844-2.344 0-1.076-.688-2.025-1.719-2.219-.806-.151-1.746.119-2.719.875C9.16 2.043 9.402 1 10 1h1V0H3zm-.625 3.031c.51-.096 1.36.101 2.344 1C3.604 4.17 3 5.15 3 7v.094c-.34-.396-.624-.746-.844-1.063C1.688 5.357 1.5 4.863 1.5 4.25c0-.7.31-1.113.875-1.219zm8.75 0c.188-.027.359-.026.5 0 .564.106.875.519.875 1.219 0 .613-.188 1.107-.656 1.781-.22.317-.503.667-.844 1.063V7c0-1.85-.604-2.83-1.719-2.969.712-.65 1.352-.929 1.844-1z"/>
</svg>
